X: 16
T:Bride's Favourite
R:jig
C:Trad
M:6/8
L:1/8
K:G
G2 A |: ~B3 ~A3 | BdB BAG | B2 B dcB | ABA DFA | ~B3 ~A3 | GBd gdB | A2A
 cBA | GFA G2 A :|
|: dcB gdB | GBd gdB | cBc ecA | GBd g2d | B2B ABA | GBd gdB | AAA cBA |
  GFA G3  :|
